X:19
T:The Chief
R:jig
C:Paul Cranford
O:Cape Breton Island
S:http://www.cranfordpub.com
D:The Lighthouse, Paul Cranford, 1996
B:The Lighthouse Collection, Paul Stewart Cranford
Z:psc, (re-formatted,updated 9/20/04)
N:Composed for Captain Barna Norton, Jonesport, Me
H:                                                    copyrights Cranford Publications, SOCAN
L:1/8
Q:300
M:6/8
K:Bb
c|BFD FBd|f=eg fdB|cAF ece|dBd cAF|
BFD FBd|f=eg fdB|cAF edc|B3 B2:|
|:f|bfd Bdf|edc BAB|cAF ece|
[1dBd c(f/g/a)|bfd Bdf|edc BAB|cAF edc|B3 B2:|
[2dBd cAF|BFD B,Bd|cAc edc|dfB ecA|B3 B2|]
